X:206
T:Pritty Poll. HA.205
T:Pretty Poll,aka. HA.205
M:3/2
L:1/8
Q:1/2=100
S:Henry Atkinson’s original MS,Hartburn,N’umberland,1694.
O:England
A:Hartburn,Northumberland
N:Problematic time signatureCGP cf PFD Vol 2..
H:1/8
Z:vmp.Neil Brookes, Jan.2004
K:Amin
“_No Time Sig in MS”A2E2E2A2c4|dcBc A2(cd)e4|
e2ae f2e2d2c2|B4A2e2f2e2|d4B4:|
z2d2|(ed)(cB) (cd)c2(dc)(BA)|B3B (cB)(AG) (AB)A2|
z2e2(fe)(dc) g2G2|c4c4 (ef)(ef)|
g2g2 (gf)(ed) c4|(cd)(cd)e2e2 (ed)(cB)|
A2e2A2e2(dc)(BA)|A8||A12|]

